X:1
T:L. D. Eichhorn
T:H. C. Buell
T:"Jesus Only"
%%score { ( 1 2 ) | ( 3 4 ) }
L:1/8
M:4/4
K:Eb
V:1 treble 
V:2 treble 
V:3 bass 
V:4 bass 
V:1
{/x} B>c | (!>!d2 c2) B2 G>A | (B2 A2)[Q:1/4=48]"^Largo" !fermata!G2[Q:1/4=120]"^Allegretto" B,>C | %3
w: "Je\- sus|on\- * ly, Je\- sus|on\- * ly"\- in the|
w: "Je\- sus|on\- * ly, Je\- sus|on\- * ly"\- in the|
w: "Je\- sus|on\- * ly, Je\- sus|on\- * ly"\- when in|
w: "Je\- sus|on\- * ly, Je\- sus|on\- * ly"\- This shall|
 E2 E2 F2 F2 | G>cGF G2 c>G | F4[Q:1/4=48]"^Lento" !fermata!B2[Q:1/4=120]"^Allegretto" B>E | %6
w: morn\- ing, When I|rise to greet the day, "Je\- sus|on\- ly, Je\- sus|
w: spring\- time, When the|flo\- wer\- buds un\- fold; "Je\- sus|on\- ly, Je\- sus|
w: Judg\- ment I am|asked to give ac\- count; "Je\- sus|on\- ly, Je\- sus|
w: ev\- er Be my|all pre\- vail\- ing plea; "Je\- sus|on\- ly, Je\- sus|
 G4 F2 B,>C | E2 E2 F2 F2 | G>cGF E2 e>c | (G4 F4) | E6 |] %11
w: on\- ly"\- in the|eve\- ning, When I|lay its cares a\- way. "Je\- sus|on\- *|ly."|
w: on\- ly"\- in the|au\- tumn, When the|trees are decked with gold. "Je\- sus|on\- *|ly."|
w: on\- ly"\- when I|meas\- ure Grace a\-|bound\- ing in a\- mount. "Je\- sus|on\- *|ly."|
w: on\- ly"\- that in|glo\- ry I may|in His like\- ness be! "Je\- sus|on\- *|ly."|
V:2
 G>G | A4 F2 E>E | E4 E2 B,>C | B,4 D4 | E2 D2 E2 D2 | D4 D2 E2 | E4 D2 B,>C | B,4 E2 D2 | %8
 E2 D2 C2 z2 | E2 C2 D4 | B,6 |] %11
V:3
 B,>B, | B,4 B,2"^(Tenor prominent)" B,>C | (D2 C2) B,2 A,2 | G,2 G,2 B,4 | B,>G, B,2 B,2 B,2 | %5
w: |||||
 B,4 A,2 G,2 | (B,2 =A,2) _A,2 A,2 | G,2 G,2 B,4 | B,>G,B,A, G,2 z2 | B,2 B,2 (B,2 A,2 | G,6) |] %11
w: ||||"Je- sus on- *|ly.|
V:4
 E,>E, | (B,,2 C,2) D,2 E,>E, | E,4 !fermata!E,2 B,,2 | E,2 B,,2 B,,4 | E,2 B,,2 E,2 A,2 | %5
 A,4 !fermata!B,,2 E,2 | B,,6 B,,2 | E,2 B,,2 B,,4 | E,2 B,,=B,, C,2 z2 | B,,2 B,,2 B,,4 | E,6 |] %11

